gama.ui.shared/icons_svg/light/agents/agent.submenu.svg

<svg height="25" viewBox="-795.091 -4045.5 25 25" width="25" xmlns="http://www.w3.org/2000/svg"><g fill="none"><path d="m-790.7512-4045h16.32c2.1208 0 3.84 1.719 3.84 3.84v16.32c0 2.121-1.7192 3.84-3.84 3.84h-16.32c-2.1207 0-3.84-1.719-3.84-3.84v-16.32c0-2.121 1.7193-3.84 3.84-3.84z" fill="#fff"/><path d="m-790.7512-4045h16.32c2.1208 0 3.84 1.719 3.84 3.84v16.32c0 2.121-1.7192 3.84-3.84 3.84h-16.32c-2.1207 0-3.84-1.719-3.84-3.84v-16.32c0-2.121 1.7193-3.84 3.84-3.84z" stroke="#000" stroke-linecap="round" stroke-linejoin="round" stroke-width=".25"/><path d="m-777.3632-4029.3904-2.7656-1.2566c.936-.732 1.5376-1.872 1.5376-3.153 0-2.209-1.7904-4-4-4-2.2088 0-4 1.791-4 4 0 1.281.6016 2.421 1.5384 3.153l-2.7656 1.2566c-.2632.12-.4944.2934-.68.5074-.8152-1.1674-1.2928-2.5866-1.2928-4.117 0-3.976 3.224-7.2 7.2-7.2 3.9768 0 7.2 3.224 7.2 7.2 0 1.5304-.4776 2.9496-1.292 4.117-.1856-.214-.4168-.3874-.68-.5074m-8.428-4.4096c0-1.767 1.4328-3.2 3.2-3.2s3.2 1.433 3.2 3.2-1.4328 3.2-3.2 3.2-3.2-1.433-3.2-3.2m3.2 8c-2.1496 0-4.0784-.9416-5.3984-2.435.1232-.185.296-.334.5024-.4266l3.2656-1.4848c.4976.2224 1.0496.3464 1.6304.3464s1.1328-.124 1.6312-.3464l3.2656 1.4848c.2056.0926.3784.2416.5016.4266-1.3192 1.4934-3.2488 2.435-5.3984 2.435m0-15.2c-4.4184 0-8 3.5816-8 8s3.5816 8 8 8 8-3.5816 8-8-3.5816-8-8-8" fill="#66727e"/></g></svg>

<?xml version="1.0" encoding="UTF-8" standalone="no"?>
<!DOCTYPE svg PUBLIC "-//W3C//DTD SVG 1.1//EN" "http://www.w3.org/Graphics/SVG/1.1/DTD/svg11.dtd">
<svg version="1.1" xmlns="http://www.w3.org/2000/svg" xmlns:xl="http://www.w3.org/1999/xlink" xmlns:dc="http://purl.org/dc/elements/1.1/" viewBox="-795.0912 -4045.5 25 25" width="25" height="25">
  <defs/>
  <g id="SOURCES" stroke-dasharray="none" fill="none" stroke="none" fill-opacity="1" stroke-opacity="1">
    <title>SOURCES</title>
    <g id="SOURCES_Calque_2">
      <title>Calque 2</title>
      <g id="Graphic_8775">
        <path d="M -790.7512 -4045 L -774.4312 -4045 C -772.3104 -4045 -770.5912 -4043.281 -770.5912 -4041.16 L -770.5912 -4024.84 C -770.5912 -4022.719 -772.3104 -4021 -774.4312 -4021 L -790.7512 -4021 C -792.8719 -4021 -794.5912 -4022.719 -794.5912 -4024.84 L -794.5912 -4041.16 C -794.5912 -4043.281 -792.8719 -4045 -790.7512 -4045 Z" fill="white"/>
        <path d="M -790.7512 -4045 L -774.4312 -4045 C -772.3104 -4045 -770.5912 -4043.281 -770.5912 -4041.16 L -770.5912 -4024.84 C -770.5912 -4022.719 -772.3104 -4021 -774.4312 -4021 L -790.7512 -4021 C -792.8719 -4021 -794.5912 -4022.719 -794.5912 -4024.84 L -794.5912 -4041.16 C -794.5912 -4043.281 -792.8719 -4045 -790.7512 -4045 Z" stroke="black" stroke-linecap="round" stroke-linejoin="round" stroke-width=".25"/>
      </g>
      <g id="Graphic_8782">
        <path d="M -777.3632 -4029.3904 L -780.1288 -4030.647 C -779.1928 -4031.379 -778.5912 -4032.519 -778.5912 -4033.8 C -778.5912 -4036.009 -780.3816 -4037.8 -782.5912 -4037.8 C -784.8 -4037.8 -786.5912 -4036.009 -786.5912 -4033.8 C -786.5912 -4032.519 -785.9896 -4031.379 -785.0528 -4030.647 L -787.8184 -4029.3904 C -788.0816 -4029.2704 -788.3128 -4029.097 -788.4984 -4028.883 C -789.3136 -4030.0504 -789.7912 -4031.4696 -789.7912 -4033 C -789.7912 -4036.976 -786.5672 -4040.2 -782.5912 -4040.2 C -778.6144 -4040.2 -775.3912 -4036.976 -775.3912 -4033 C -775.3912 -4031.4696 -775.8688 -4030.0504 -776.6832 -4028.883 C -776.8688 -4029.097 -777.1 -4029.2704 -777.3632 -4029.3904 M -785.7912 -4033.8 C -785.7912 -4035.567 -784.3584 -4037 -782.5912 -4037 C -780.824 -4037 -779.3912 -4035.567 -779.3912 -4033.8 C -779.3912 -4032.033 -780.824 -4030.6 -782.5912 -4030.6 C -784.3584 -4030.6 -785.7912 -4032.033 -785.7912 -4033.8 M -782.5912 -4025.8 C -784.7408 -4025.8 -786.6696 -4026.7416 -787.9896 -4028.235 C -787.8664 -4028.42 -787.6936 -4028.569 -787.4872 -4028.6616 L -784.2216 -4030.1464 C -783.724 -4029.924 -783.172 -4029.8 -782.5912 -4029.8 C -782.0104 -4029.8 -781.4584 -4029.924 -780.96 -4030.1464 L -777.6944 -4028.6616 C -777.4888 -4028.569 -777.316 -4028.42 -777.1928 -4028.235 C -778.512 -4026.7416 -780.4416 -4025.8 -782.5912 -4025.8 M -782.5912 -4041 C -787.0096 -4041 -790.5912 -4037.4184 -790.5912 -4033 C -790.5912 -4028.5816 -787.0096 -4025 -782.5912 -4025 C -778.1728 -4025 -774.5912 -4028.5816 -774.5912 -4033 C -774.5912 -4037.4184 -778.1728 -4041 -782.5912 -4041" fill="#66727e"/>
      </g>
    </g>
  </g>
</svg>
